img/svg/16/net/deepnetexplorer.svg

<svg xmlns="http://www.w3.org/2000/svg" viewBox="0 0 16 16" enable-background="new 0 0 16 16"><g fill="#ccc"><path d="M11.004 1h-10.004v14h10.004c1.655 0 2.996-1.341 2.996-2.996v-8.008c0-1.655-1.341-2.996-2.996-2.996zm.996 10.495c0 .831-.674 1.505-1.505 1.505h-7.495v-10h7.495c.831 0 1.505.674 1.505 1.505v6.99zM4 5v6c0 .552.448 1 1 1h6v-1.5h-5.25c-.138 0-.25-.112-.25-.25v-1.25c0-.138.112-.25.25-.25h5.25v-1.5h-5.25c-.138 0-.25-.112-.25-.25v-1.25c0-.138.112-.25.25-.25h5.25v-1.5h-6c-.552 0-1 .448-1 1z"/></g></svg>

<svg xmlns="http://www.w3.org/2000/svg" viewBox="0 0 16 16"><path fill="#ccc" d="M11.004 1H1v14h10.004A2.996 2.996 0 0 0 14 12.004V3.996A2.996 2.996 0 0 0 11.004 1zM12 11.495c0 .831-.674 1.505-1.505 1.505H3V3h7.495C11.326 3 12 3.674 12 4.505v6.99zM4 5v6a1 1 0 0 0 1 1h6v-1.5H5.75a.25.25 0 0 1-.25-.25V9a.25.25 0 0 1 .25-.25H11v-1.5H5.75A.25.25 0 0 1 5.5 7V5.75a.25.25 0 0 1 .25-.25H11V4H5a1 1 0 0 0-1 1z"/></svg>
